X:1
T:B. D. Ackely
T:Rev. A. H. Ackley
T:What Will You Do When the Judge Appears?
%%score { ( 1 2 ) | ( 3 4 ) }
L:1/8
M:6/4
K:Eb
V:1 treble 
V:2 treble 
V:3 bass 
V:4 bass 
V:1
{/x} G2 ^F2 G2 B2 =A2 B2 | c4 =A2 B6 | B2 A2 F2 D2 C2 B,2 | E4 F2 G6 | G2 G2 G2 G2 G2 G2 | %5
w: What will you do when the|Judge ap\- pears,|What will you say of your|mis\- spent years,|How can you an\- swer your|
w: What will you do when The|Cru\- ci\- fied|Points to the cross where for|you he died,|How can you hide from your|
w: What will you do when you|stand in need,|With\- out a friend who can|in\- ter\- cede,|Too late your plead\- ings, in|
w: What will you do with your|pomp and pride,|What will you do, for you|must de\- cide?|Has\- ten to\- day, for the|
 G4 G2 A6 | A2 G2 F2 B2 G2 E2 | C4 F2 F6 |"^Chorus" G2 G2 G2 G2 G2 G2 | A4 G2 A6 | %10
w: moth\- er's tears,|What will you do when the|Judge ap\- pears?|What will you do when the|Judge ap\- pears?|
w: guilt\- y fears,|||||
w: vain your tears,|||||
w: judg\- ment nears;|||||
 A2 G2 F2 B2 G2 E2 | C2 D2 E2 F6 | G2 ^F2 G2 A2 G2 A2 | B2 =A2 B2 c6 | B2 G2 E2 B,2 =A,2 B,2 | %15
w: Christ is the re\- fuge what\-|ev\- er be\- tide;|You will be saved if in|Him you a\- bide;|What will you do when the|
w: |||||
w: |||||
w: |||||
 G4 F2 E6 |] %16
w: Judge ap\- pears?|
w: |
w: |
w: |
V:2
 E6- E6 | E6- E6 | (D6 B,6) | B,4 D2 E6 | E2 E2 E2 F2 F2 F2 | E4 ^C2 D6 | D6- D6 | C4 [CE]2 D6 | %8
 E2 E2 E2 ^C2 C2 C2 | D4 C2 D6 | (D6 E6) | (C6 D6) | (E6 D2) ^C2 D2 | E6- E6 | x12 | %15
 D4 [B,D]2 B,6 |] %16
V:3
 B,2 =A,2 B,2 G,2 ^F,2 G,2 | A,4 ^F,2 G,6 | (F,6 A,6) | G,4 B,2 B,6 | C2 C2 C2 =B,2 B,2 B,2 | %5
 C4 B,2 B,6 | B,6- B,4 G,2 | =A,4 A,2 B,6 | B,2 B,2 B,2 B,2 B,2 B,2 | B,4 B,2 B,6 | B,6- B,4 G,2 | %11
 =A,6 B,2 _A,2 B,2 | B,2 =A,2 B,2 B,6 | B,2 C2 _D2 A,6 | B,2 G,2 E,2 B,,2 =A,,2 B,,2 | %15
 B,4 A,2 G,6 |] %16
V:4
 E,6- E,6 | E,6- E,6 | B,,6- B,,6 | G,,4 B,,2 E,6 | C,2 C,2 C,2 D,2 D,2 D,2 | E,4 =E,2 F,6 | %6
 F,2 B,2 A,2 G,2 E,4 | F,4 F,2 B,,6 | E,2 E,2 E,2 =E,2 E,2 E,2 | F,4 =E,2 F,6 | %10
 F,2 B,2 A,2 G,2 E,4 | (F,6 B,,6) | E,6 F,2 =E,2 F,2 | G,2 ^F,2 G,2 A,6 | x12 | B,,4 B,,2 E,6 |] %16

